; generated by Slic3r 1.3.0-dev on 2025-03-17 at 16:39:04

; external perimeters extrusion width = 0.40mm (2.14mm^3/s)
; perimeters extrusion width = 0.67mm (3.77mm^3/s)
; infill extrusion width = 0.67mm (3.77mm^3/s)
; solid infill extrusion width = 0.67mm (3.77mm^3/s)
; top infill extrusion width = 0.67mm (3.77mm^3/s)

M107
M104 S200 ; set temperature
G28 ; home all axes
G1 Z5 F5000 ; lift nozzle

; Filament gcode

M109 S200 ; set temperature and wait for it to be reached
G21 ; set units to millimeters
G90 ; use absolute coordinates
M82 ; use absolute distances for extrusion
G92 E0
G1 E-5.00000 F2400.00000
G92 E0
G1 Z0.600 F1800.000
G1 X-23.468 Y30.654 F1800.000
G1 Z0.300 F1800.000
G1 E5.00000 F2400.00000
G1 F1200
G1 X-39.716 Y16.258 E5.64454
G1 X-41.107 Y14.495 E5.71124
G1 X-41.857 Y11.500 E5.80290
G1 X-41.857 Y-11.500 E6.48580
G1 X-41.460 Y-13.711 E6.55250
G1 X-39.716 Y-16.258 E6.64416
G1 X-23.468 Y-30.654 E7.28870
G1 X-23.039 Y-31.002 E7.30510
G1 X-20.399 Y-32.960 E7.40269
G1 X-19.880 Y-33.307 E7.42123
G1 X-17.060 Y-34.997 E7.51884
G1 X-16.511 Y-35.290 E7.53733
G1 X-13.539 Y-36.696 E7.63495
G1 X-12.963 Y-36.935 E7.65346
G1 X-9.868 Y-38.043 E7.75107
G1 X-9.268 Y-38.225 E7.76967
G1 X-6.079 Y-39.023 E7.86727
G1 X-5.470 Y-39.144 E7.88572
G1 X-2.218 Y-39.627 E7.98334
G1 X-1.595 Y-39.688 E8.00191
G1 X1.689 Y-39.849 E8.09954
G1 X2.311 Y-39.849 E8.11802
G1 X5.595 Y-39.688 E8.21564
G1 X6.218 Y-39.627 E8.23421
G1 X9.470 Y-39.144 E8.33183
G1 X10.079 Y-39.023 E8.35027
G1 X13.268 Y-38.225 E8.44788
G1 X13.868 Y-38.043 E8.46648
G1 X16.963 Y-36.935 E8.56409
G1 X17.539 Y-36.696 E8.58259
G1 X20.511 Y-35.290 E8.68021
G1 X21.060 Y-34.997 E8.69871
G1 X23.880 Y-33.307 E8.79632
G1 X24.399 Y-32.960 E8.81486
G1 X27.039 Y-31.002 E8.91245
G1 X27.521 Y-30.606 E8.93098
G1 X29.957 Y-28.398 E9.02859
G1 X30.398 Y-27.957 E9.04710
G1 X32.606 Y-25.521 E9.14472
G1 X33.002 Y-25.039 E9.16325
G1 X34.960 Y-22.399 E9.26084
G1 X35.307 Y-21.880 E9.27938
G1 X36.997 Y-19.060 E9.37699
G1 X37.290 Y-18.511 E9.39548
G1 X38.696 Y-15.539 E9.49310
G1 X38.935 Y-14.963 E9.51161
G1 X40.043 Y-11.868 E9.60922
G1 X40.225 Y-11.269 E9.62779
G1 X41.023 Y-8.079 E9.72542
G1 X41.144 Y-7.470 E9.74387
G1 X41.627 Y-4.218 E9.84148
G1 X41.688 Y-3.595 E9.86006
G1 X41.849 Y-0.311 E9.95769
G1 X41.849 Y0.311 E9.97615
G1 X41.688 Y3.595 E10.07379
G1 X41.627 Y4.218 E10.09237
G1 X41.144 Y7.470 E10.18999
G1 X41.023 Y8.079 E10.20843
G1 X40.225 Y11.268 E10.30603
G1 X40.043 Y11.868 E10.32463
G1 X38.935 Y14.963 E10.42224
G1 X38.696 Y15.539 E10.44074
G1 X37.290 Y18.511 E10.53836
G1 X36.997 Y19.060 E10.55686
G1 X35.307 Y21.880 E10.65447
G1 X34.960 Y22.399 E10.67301
G1 X33.002 Y25.039 E10.77060
G1 X32.606 Y25.521 E10.78913
G1 X30.398 Y27.957 E10.88675
G1 X29.957 Y28.398 E10.90525
G1 X27.521 Y30.606 E11.00288
G1 X27.039 Y31.002 E11.02140
G1 X24.399 Y32.960 E11.11899
G1 X23.880 Y33.307 E11.13753
G1 X21.060 Y34.997 E11.23515
G1 X20.511 Y35.290 E11.25363
G1 X17.539 Y36.696 E11.35125
G1 X16.963 Y36.935 E11.36976
G1 X13.868 Y38.043 E11.46737
G1 X13.268 Y38.225 E11.48597
G1 X10.079 Y39.023 E11.58357
G1 X9.470 Y39.144 E11.60202
G1 X6.218 Y39.627 E11.69964
G1 X5.595 Y39.688 E11.71821
G1 X2.311 Y39.849 E11.81584
G1 X1.689 Y39.849 E11.83430
G1 X-1.595 Y39.688 E11.93194
G1 X-2.218 Y39.627 E11.95052
G1 X-5.470 Y39.144 E12.04813
G1 X-6.079 Y39.023 E12.06658
G1 X-9.268 Y38.225 E12.16418
G1 X-9.868 Y38.043 E12.18278
G1 X-12.963 Y36.935 E12.28039
G1 X-13.539 Y36.696 E12.29890
G1 X-16.511 Y35.290 E12.39651
G1 X-17.060 Y34.997 E12.41501
G1 X-19.880 Y33.307 E12.51262
G1 X-20.399 Y32.960 E12.53116
G1 X-23.039 Y31.002 E12.62875
G1 X-23.421 Y30.692 E12.64336
G1 E7.64336 F2400.00000
G92 E0
G1 Z0.800 F1800.000
G1 X-31.117 Y14.039 F1800.000
G1 Z0.300 F1800.000
G1 E5.00000 F2400.00000
G1 F1200
G1 X-31.209 Y13.980 E5.00339
G1 X-36.527 Y13.980 E5.16922
G1 X-37.980 Y12.527 E5.23329
G1 X-37.980 Y4.476 E5.48436
G1 X-36.527 Y3.023 E5.54843
G1 X-23.088 Y3.023 E5.96748
G1 X-22.978 Y2.913 E5.97232
G1 X-22.978 Y-3.412 E6.16953
G1 X-23.088 Y-3.522 E6.17437
G1 X-36.527 Y-3.522 E6.59343
G1 X-37.980 Y-4.975 E6.65750
G1 X-37.980 Y-12.527 E6.89301
G1 X-36.527 Y-13.980 E6.95708
G1 X-31.209 Y-13.980 E7.12290
G1 X-31.117 Y-14.039 E7.12629
G1 X-29.703 Y-17.015 E7.22905
G1 X-27.883 Y-20.041 E7.33915
G1 X-25.775 Y-22.873 E7.44924
G1 X-23.399 Y-25.485 E7.55934
G1 X-20.873 Y-27.775 E7.66565
G1 X-18.041 Y-29.883 E7.77573
G1 X-15.015 Y-31.703 E7.88584
G1 X-11.826 Y-33.218 E7.99593
G1 X-8.503 Y-34.414 E8.10603
G1 X-5.079 Y-35.277 E8.21614
G1 X-1.588 Y-35.801 E8.32623
G1 X1.939 Y-35.980 E8.43636
G1 X5.466 Y-35.813 E8.54646
G1 X8.960 Y-35.301 E8.65657
G1 X12.386 Y-34.449 E8.76665
G1 X15.713 Y-33.265 E8.87677
G1 X18.908 Y-31.760 E8.98687
G1 X21.939 Y-29.950 E9.09696
G1 X24.779 Y-27.852 E9.20705
G1 X27.399 Y-25.485 E9.31715
G1 X29.775 Y-22.873 E9.42726
G1 X31.883 Y-20.041 E9.53734
G1 X33.703 Y-17.015 E9.64744
G1 X35.218 Y-13.826 E9.75753
G1 X36.414 Y-10.504 E9.86764
G1 X37.277 Y-7.079 E9.97775
G1 X37.801 Y-3.588 E10.08783
G1 X37.980 Y-0.061 E10.19796
G1 X37.813 Y3.466 E10.30807
G1 X37.301 Y6.960 E10.41818
G1 X36.449 Y10.386 E10.52826
G1 X35.265 Y13.713 E10.63837
G1 X33.760 Y16.908 E10.74847
G1 X31.950 Y19.939 E10.85857
G1 X29.852 Y22.779 E10.96865
G1 X27.485 Y25.399 E11.07876
G1 X24.873 Y27.775 E11.18886
G1 X22.041 Y29.883 E11.29895
G1 X19.015 Y31.703 E11.40905
G1 X15.826 Y33.218 E11.51915
G1 X12.503 Y34.414 E11.62924
G1 X9.079 Y35.277 E11.73935
G1 X5.588 Y35.801 E11.84944
G1 X2.061 Y35.980 E11.95957
G1 X-1.466 Y35.813 E12.06967
G1 X-4.960 Y35.301 E12.17978
G1 X-8.386 Y34.449 E12.28986
G1 X-11.713 Y33.265 E12.39998
G1 X-14.908 Y31.760 E12.51008
G1 X-17.939 Y29.950 E12.62017
G1 X-20.779 Y27.852 E12.73026
G1 X-23.399 Y25.485 E12.84036
G1 X-25.775 Y22.873 E12.95047
G1 X-27.883 Y20.041 E13.06055
G1 X-29.703 Y17.015 E13.17065
G1 X-31.092 Y14.093 E13.27154
G1 X-30.880 Y13.664 F1800.000
G1 F1200
G1 X-30.972 Y13.605 E13.27493
G1 X-36.372 Y13.605 E13.44331
G1 X-37.605 Y12.372 E13.49770
G1 X-37.605 Y4.631 E13.73908
G1 X-36.372 Y3.398 E13.79347
G1 X-22.713 Y3.398 E14.21937
G1 X-22.603 Y3.288 E14.22421
G1 X-22.603 Y-3.787 E14.44480
G1 X-22.713 Y-3.897 E14.44965
G1 X-36.372 Y-3.897 E14.87555
G1 X-37.605 Y-5.130 E14.92993
G1 X-37.605 Y-12.372 E15.15576
G1 X-36.372 Y-13.605 E15.21014
G1 X-30.972 Y-13.605 E15.37853
G1 X-30.880 Y-13.664 E15.38192
G1 X-29.425 Y-16.739 E15.48800
G1 X-27.633 Y-19.739 E15.59695
G1 X-25.556 Y-22.548 E15.70589
G1 X-23.213 Y-25.140 E15.81485
G1 X-20.628 Y-27.491 E15.92380
G1 X-17.825 Y-29.576 E16.03274
G1 X-14.830 Y-31.376 E16.14169
G1 X-11.674 Y-32.875 E16.25064
G1 X-8.386 Y-34.058 E16.35959
G1 X-4.997 Y-34.911 E16.46855
G1 X-1.542 Y-35.429 E16.57750
G1 X1.948 Y-35.605 E16.68647
G1 X5.439 Y-35.439 E16.79543
G1 X8.896 Y-34.931 E16.90439
G1 X12.286 Y-34.088 E17.01333
G1 X15.578 Y-32.915 E17.12229
G1 X18.739 Y-31.425 E17.23125
G1 X21.739 Y-29.633 E17.34020
G1 X24.548 Y-27.556 E17.44913
G1 X27.140 Y-25.213 E17.55809
G1 X29.491 Y-22.628 E17.66705
G1 X31.576 Y-19.825 E17.77598
G1 X33.376 Y-16.830 E17.88494
G1 X34.875 Y-13.674 E17.99388
G1 X36.058 Y-10.386 E18.10284
G1 X36.911 Y-6.997 E18.21180
G1 X37.429 Y-3.542 E18.32074
G1 X37.605 Y-0.052 E18.42972
G1 X37.439 Y3.439 E18.53867
G1 X36.931 Y6.896 E18.64764
G1 X36.088 Y10.286 E18.75657
G1 X34.915 Y13.578 E18.86554
G1 X33.425 Y16.739 E18.97449
G1 X31.633 Y19.739 E19.08344
G1 X29.556 Y22.548 E19.19237
G1 X27.213 Y25.140 E19.30134
G1 X24.628 Y27.491 E19.41029
G1 X21.825 Y29.576 E19.51923
G1 X18.830 Y31.376 E19.62818
G1 X15.674 Y32.875 E19.73713
G1 X12.386 Y34.058 E19.84608
G1 X8.997 Y34.911 E19.95504
G1 X5.542 Y35.429 E20.06399
G1 X2.052 Y35.605 E20.17296
G1 X-1.439 Y35.439 E20.28192
G1 X-4.896 Y34.931 E20.39088
G1 X-8.286 Y34.088 E20.49981
G1 X-11.578 Y32.915 E20.60878
G1 X-14.739 Y31.425 E20.71773
G1 X-17.739 Y29.633 E20.82668
G1 X-20.548 Y27.556 E20.93562
G1 X-23.140 Y25.213 E21.04458
G1 X-25.491 Y22.628 E21.15354
G1 X-27.576 Y19.825 E21.26247
G1 X-29.376 Y16.830 E21.37142
G1 X-30.854 Y13.718 E21.47885
G1 X-30.617 Y13.299 F1800.000
G1 F1200
G1 X-30.714 Y13.230 E21.48256
G1 X-36.217 Y13.230 E21.65415
G1 X-37.230 Y12.217 E21.69885
G1 X-37.230 Y4.786 E21.93054
G1 X-36.217 Y3.773 E21.97524
G1 X-22.338 Y3.773 E22.40800
G1 X-22.228 Y3.663 E22.41284
G1 X-22.228 Y-4.162 E22.65682
G1 X-22.338 Y-4.272 E22.66166
G1 X-36.217 Y-4.272 E23.09441
G1 X-37.230 Y-5.285 E23.13911
G1 X-37.230 Y-12.217 E23.35525
G1 X-36.217 Y-13.230 E23.39994
G1 X-30.714 Y-13.230 E23.57154
G1 X-30.617 Y-13.299 E23.57524
G1 X-30.532 Y-13.522 E23.58267
G1 X-29.090 Y-16.570 E23.68783
G1 X-27.316 Y-19.538 E23.79564
G1 X-25.261 Y-22.317 E23.90342
G1 X-22.942 Y-24.882 E24.01124
G1 X-20.383 Y-27.207 E24.11904
G1 X-17.609 Y-29.269 E24.22683
G1 X-14.645 Y-31.050 E24.33464
G1 X-11.443 Y-32.565 E24.44509
G1 X-8.186 Y-33.726 E24.55290
G1 X-4.832 Y-34.561 E24.66069
G1 X-1.411 Y-35.065 E24.76851
G1 X2.042 Y-35.230 E24.87632
G1 X5.496 Y-35.057 E24.98415
G1 X8.915 Y-34.545 E25.09194
G1 X12.268 Y-33.702 E25.19975
G1 X15.522 Y-32.532 E25.30755
G1 X18.645 Y-31.050 E25.41536
G1 X21.609 Y-29.269 E25.52317
G1 X24.383 Y-27.207 E25.63095
G1 X26.942 Y-24.882 E25.73876
G1 X29.261 Y-22.317 E25.84658
G1 X31.316 Y-19.538 E25.95436
G1 X33.090 Y-16.570 E26.06216
G1 X34.565 Y-13.443 E26.16997
G1 X35.726 Y-10.187 E26.27778
G1 X36.561 Y-6.832 E26.38557
G1 X37.065 Y-3.411 E26.49339
G1 X37.230 Y0.042 E26.60120
G1 X37.057 Y3.496 E26.70903
G1 X36.545 Y6.915 E26.81683
G1 X35.702 Y10.268 E26.92464
G1 X34.532 Y13.522 E27.03244
G1 X33.050 Y16.645 E27.14024
G1 X31.269 Y19.609 E27.24805
G1 X29.207 Y22.383 E27.35584
G1 X26.882 Y24.942 E27.46365
G1 X24.317 Y27.261 E27.57146
G1 X21.538 Y29.316 E27.67925
G1 X18.570 Y31.090 E27.78705
G1 X15.443 Y32.565 E27.89486
G1 X12.186 Y33.726 E28.00267
G1 X8.832 Y34.561 E28.11046
G1 X5.411 Y35.065 E28.21827
G1 X1.958 Y35.230 E28.32609
G1 X-1.496 Y35.057 E28.43391
G1 X-4.915 Y34.545 E28.54171
G1 X-8.268 Y33.702 E28.64952
G1 X-11.522 Y32.532 E28.75732
G1 X-14.645 Y31.050 E28.86513
G1 X-17.609 Y29.269 E28.97294
G1 X-20.383 Y27.207 E29.08072
G1 X-22.942 Y24.882 E29.18853
G1 X-25.261 Y22.317 E29.29634
G1 X-27.316 Y19.538 E29.40413
G1 X-29.090 Y16.570 E29.51193
G1 X-30.532 Y13.522 E29.61709
G1 X-30.596 Y13.355 E29.62265
G1 X-30.352 Y12.924 F1800.000
G1 F1200
G1 X-30.450 Y12.855 E29.62636
G1 X-36.061 Y12.855 E29.80134
G1 X-36.855 Y12.061 E29.83635
G1 X-36.855 Y4.942 E30.05836
G1 X-36.061 Y4.148 E30.09337
G1 X-21.963 Y4.148 E30.53297
G1 X-21.853 Y4.038 E30.53782
G1 X-21.853 Y-4.537 E30.80518
G1 X-21.963 Y-4.647 E30.81002
G1 X-36.061 Y-4.647 E31.24963
G1 X-36.855 Y-5.441 E31.28464
G1 X-36.855 Y-12.061 E31.49109
G1 X-36.061 Y-12.855 E31.52610
G1 X-30.450 Y-12.855 E31.70108
G1 X-30.352 Y-12.924 E31.70479
G1 X-30.189 Y-13.370 E31.71959
G1 X-28.755 Y-16.402 E31.82418
G1 X-27.000 Y-19.337 E31.93083
G1 X-24.965 Y-22.086 E32.03747
G1 X-22.670 Y-24.623 E32.14414
G1 X-20.138 Y-26.923 E32.25080
G1 X-17.393 Y-28.963 E32.35744
G1 X-14.460 Y-30.724 E32.46410
G1 X-11.308 Y-32.215 E32.57283
G1 X-8.086 Y-33.365 E32.67949
G1 X-4.768 Y-34.192 E32.78613
G1 X-1.384 Y-34.691 E32.89280
G1 X2.033 Y-34.855 E32.99947
G1 X5.450 Y-34.685 E33.10614
G1 X8.833 Y-34.179 E33.21280
G1 X12.150 Y-33.345 E33.31946
G1 X15.370 Y-32.189 E33.42611
G1 X18.460 Y-30.724 E33.53277
G1 X21.393 Y-28.963 E33.63943
G1 X24.138 Y-26.923 E33.74607
G1 X26.670 Y-24.623 E33.85273
G1 X28.965 Y-22.086 E33.95940
G1 X31.000 Y-19.337 E34.06603
G1 X32.755 Y-16.402 E34.17269
G1 X34.215 Y-13.308 E34.27935
G1 X35.365 Y-10.087 E34.38601
G1 X36.192 Y-6.768 E34.49266
G1 X36.691 Y-3.384 E34.59932
G1 X36.855 Y0.033 E34.70599
G1 X36.685 Y3.450 E34.81267
G1 X36.179 Y6.833 E34.91932
G1 X35.345 Y10.150 E35.02598
G1 X34.189 Y13.370 E35.13264
G1 X32.724 Y16.460 E35.23929
G1 X30.963 Y19.393 E35.34595
G1 X28.923 Y22.138 E35.45259
G1 X26.623 Y24.670 E35.55925
G1 X24.086 Y26.965 E35.66592
G1 X21.337 Y29.000 E35.77256
G1 X18.402 Y30.755 E35.87921
G1 X15.308 Y32.215 E35.98588
G1 X12.086 Y33.365 E36.09254
G1 X8.768 Y34.192 E36.19918
G1 X5.384 Y34.691 E36.30585
G1 X1.967 Y34.855 E36.41251
G1 X-1.450 Y34.685 E36.51919
G1 X-4.833 Y34.179 E36.62584
G1 X-8.150 Y33.345 E36.73250
G1 X-11.370 Y32.189 E36.83916
G1 X-14.460 Y30.724 E36.94582
G1 X-17.393 Y28.963 E37.05248
G1 X-20.138 Y26.923 E37.15911
G1 X-22.670 Y24.623 E37.26578
G1 X-24.965 Y22.086 E37.37244
G1 X-27.000 Y19.337 E37.47908
G1 X-28.755 Y16.402 E37.58574
G1 X-30.189 Y13.370 E37.69033
G1 X-30.332 Y12.980 E37.70326
G1 X-30.088 Y12.549 F1800.000
G1 F1200
G1 X-30.186 Y12.480 E37.70696
G1 X-35.906 Y12.480 E37.88534
G1 X-36.480 Y11.906 E37.91066
G1 X-36.480 Y5.097 E38.12298
G1 X-35.906 Y4.523 E38.14831
G1 X-21.588 Y4.523 E38.59476
G1 X-21.478 Y4.413 E38.59960
G1 X-21.478 Y-4.912 E38.89035
G1 X-21.588 Y-5.022 E38.89519
G1 X-35.906 Y-5.022 E39.34164
G1 X-36.480 Y-5.596 E39.36697
G1 X-36.480 Y-11.906 E39.56373
G1 X-35.906 Y-12.480 E39.58906
G1 X-30.186 Y-12.480 E39.76743
G1 X-30.088 Y-12.549 E39.77114
G1 X-29.847 Y-13.218 E39.79331
G1 X-28.420 Y-16.233 E39.89733
G1 X-26.683 Y-19.137 E40.00284
G1 X-24.669 Y-21.855 E40.10833
G1 X-22.398 Y-24.364 E40.21384
G1 X-19.893 Y-26.639 E40.31936
G1 X-17.177 Y-28.656 E40.42485
G1 X-14.275 Y-30.397 E40.53036
G1 X-11.173 Y-31.865 E40.63737
G1 X-7.986 Y-33.003 E40.74289
G1 X-4.704 Y-33.822 E40.84838
G1 X-1.356 Y-34.317 E40.95390
G1 X2.024 Y-34.480 E41.05942
G1 X5.404 Y-34.312 E41.16495
G1 X8.751 Y-33.813 E41.27046
G1 X12.033 Y-32.989 E41.37597
G1 X15.218 Y-31.847 E41.48147
G1 X18.275 Y-30.397 E41.58699
G1 X21.177 Y-28.656 E41.69250
G1 X23.893 Y-26.639 E41.79799
G1 X26.398 Y-24.364 E41.90350
G1 X28.669 Y-21.855 E42.00902
G1 X30.683 Y-19.137 E42.11451
G1 X32.420 Y-16.233 E42.22002
G1 X33.865 Y-13.173 E42.32554
G1 X35.003 Y-9.987 E42.43105
G1 X35.822 Y-6.704 E42.53655
G1 X36.317 Y-3.356 E42.64206
G1 X36.480 Y0.024 E42.74758
G1 X36.312 Y3.404 E42.85311
G1 X35.813 Y6.751 E42.95862
G1 X34.989 Y10.033 E43.06413
G1 X33.846 Y13.218 E43.16964
G1 X32.397 Y16.275 E43.27515
G1 X30.656 Y19.177 E43.38066
G1 X28.639 Y21.893 E43.48615
G1 X26.364 Y24.398 E43.59167
G1 X23.855 Y26.669 E43.69718
G1 X21.137 Y28.683 E43.80268
G1 X18.233 Y30.420 E43.90819
G1 X15.173 Y31.865 E44.01370
G1 X11.986 Y33.003 E44.11921
G1 X8.704 Y33.822 E44.22471
G1 X5.356 Y34.317 E44.33023
G1 X1.976 Y34.480 E44.43575
G1 X-1.404 Y34.312 E44.54128
G1 X-4.751 Y33.813 E44.64678
G1 X-8.033 Y32.989 E44.75229
G1 X-11.218 Y31.847 E44.85780
G1 X-14.275 Y30.397 E44.96331
G1 X-17.177 Y28.656 E45.06883
G1 X-19.893 Y26.639 E45.17431
G1 X-22.398 Y24.364 E45.27983
G1 X-24.669 Y21.855 E45.38535
G1 X-26.683 Y19.137 E45.49084
G1 X-28.420 Y16.233 E45.59635
G1 X-29.847 Y13.218 E45.70036
G1 X-30.068 Y12.605 E45.72067
G1 X-29.824 Y12.174 F1800.000
G1 F1200
G1 X-29.922 Y12.105 E45.72437
G1 X-35.751 Y12.105 E45.90614
G1 X-36.105 Y11.751 E45.92178
G1 X-36.105 Y5.252 E46.12441
G1 X-35.751 Y4.898 E46.14005
G1 X-21.213 Y4.898 E46.59335
G1 X-21.103 Y4.788 E46.59819
G1 X-21.103 Y-5.287 E46.91233
G1 X-21.213 Y-5.397 E46.91717
G1 X-35.751 Y-5.397 E47.37047
G1 X-36.105 Y-5.751 E47.38611
G1 X-36.105 Y-11.751 E47.57318
G1 X-35.751 Y-12.105 E47.58882
G1 X-29.922 Y-12.105 E47.77059
G1 X-29.824 Y-12.174 E47.77429
G1 X-29.504 Y-13.065 E47.80384
G1 X-28.085 Y-16.064 E47.90728
G1 X-26.366 Y-18.936 E48.01165
G1 X-24.373 Y-21.625 E48.11599
G1 X-22.127 Y-24.106 E48.22036
G1 X-19.648 Y-26.355 E48.32473
G1 X-16.961 Y-28.349 E48.42907
G1 X-14.090 Y-30.071 E48.53343
G1 X-11.038 Y-31.515 E48.63873
G1 X-7.886 Y-32.642 E48.74309
G1 X-4.640 Y-33.453 E48.84744
G1 X-1.329 Y-33.943 E48.95181
G1 X2.015 Y-34.105 E49.05618
G1 X5.358 Y-33.940 E49.16056
G1 X8.669 Y-33.447 E49.26492
G1 X11.915 Y-32.633 E49.36928
G1 X15.065 Y-31.504 E49.47364
G1 X18.090 Y-30.071 E49.57801
G1 X20.961 Y-28.349 E49.68238
G1 X23.648 Y-26.355 E49.78672
G1 X26.127 Y-24.106 E49.89109
G1 X28.373 Y-21.625 E49.99546
G1 X30.366 Y-18.936 E50.09980
G1 X32.085 Y-16.064 E50.20416
G1 X33.515 Y-13.038 E50.30853
G1 X34.642 Y-9.887 E50.41289
G1 X35.453 Y-6.640 E50.51724
G1 X35.943 Y-3.329 E50.62161
G1 X36.105 Y0.015 E50.72599
G1 X35.940 Y3.358 E50.83036
