; generated by Slic3r 1.3.0-dev on 2025-05-14 at 07:34:51

; external perimeters extrusion width = 0.40mm (2.14mm^3/s)
; perimeters extrusion width = 0.67mm (3.77mm^3/s)
; infill extrusion width = 0.67mm (3.77mm^3/s)
; solid infill extrusion width = 0.67mm (3.77mm^3/s)
; top infill extrusion width = 0.67mm (3.77mm^3/s)

M107
M104 S200 ; set temperature
G28 ; home all axes
G1 Z5 F5000 ; lift nozzle

; Filament gcode

M109 S200 ; set temperature and wait for it to be reached
G21 ; set units to millimeters
G90 ; use absolute coordinates
M82 ; use absolute distances for extrusion
G92 E0
G1 E-5.00000 F2400.00000
G92 E0
G1 Z0.600 F1800.000
G1 X10.500 Y-15.982 F1800.000
G1 Z0.300 F1800.000
G1 E5.00000 F2400.00000
G1 F1200
G1 X12.711 Y-15.585 E5.06669
G1 X14.646 Y-14.444 E5.13339
G1 X16.063 Y-12.702 E5.20008
G1 X16.857 Y-9.625 E5.29442
G1 X16.857 Y9.625 E5.86598
G1 X16.460 Y11.836 E5.93267
G1 X15.319 Y13.771 E5.99937
G1 X13.577 Y15.188 E6.06606
G1 X10.500 Y15.982 E6.16040
G1 X-10.500 Y15.982 E6.78392
G1 X-12.711 Y15.585 E6.85061
G1 X-14.646 Y14.444 E6.91731
G1 X-16.063 Y12.702 E6.98400
G1 X-16.857 Y9.625 E7.07834
G1 X-16.857 Y-9.625 E7.64990
G1 X-16.460 Y-11.836 E7.71659
G1 X-15.319 Y-13.771 E7.78328
G1 X-13.577 Y-15.188 E7.84998
G1 X-10.500 Y-15.982 E7.94432
G1 X10.440 Y-15.982 E8.56605
G1 E3.56605 F2400.00000
G92 E0
G1 Z0.800 F1800.000
G1 X10.500 Y-12.105 F1800.000
G1 Z0.300 F1800.000
G1 E5.00000 F2400.00000
G1 F1200
G1 X11.527 Y-12.105 E5.03204
G1 X12.980 Y-10.652 E5.09611
G1 X12.980 Y10.652 E5.76042
G1 X11.527 Y12.105 E5.82450
G1 X-11.527 Y12.105 E6.54338
G1 X-12.980 Y10.652 E6.60745
G1 X-12.980 Y-10.652 E7.27177
G1 X-11.527 Y-12.105 E7.33584
G1 X10.440 Y-12.105 E8.02081
G1 X10.500 Y-11.730 F1800.000
G1 F1200
G1 X11.372 Y-11.730 E8.04801
G1 X12.605 Y-10.497 E8.10239
G1 X12.605 Y10.497 E8.75702
G1 X11.372 Y11.730 E8.81141
G1 X-11.372 Y11.730 E9.52060
G1 X-12.605 Y10.497 E9.57499
G1 X-12.605 Y-10.497 E10.22962
G1 X-11.372 Y-11.730 E10.28400
G1 X10.440 Y-11.730 E10.96413
G1 X10.500 Y-11.355 F1800.000
G1 F1200
G1 X11.217 Y-11.355 E10.98648
G1 X12.230 Y-10.342 E11.03118
G1 X12.230 Y10.342 E11.67612
G1 X11.217 Y11.355 E11.72082
G1 X-11.217 Y11.355 E12.42033
G1 X-12.230 Y10.342 E12.46503
G1 X-12.230 Y-10.342 E13.10997
G1 X-11.217 Y-11.355 E13.15467
G1 X10.440 Y-11.355 E13.82996
G1 X10.500 Y-10.980 F1800.000
G1 F1200
G1 X11.061 Y-10.980 E13.84746
G1 X11.855 Y-10.186 E13.88248
G1 X11.855 Y10.186 E14.51773
G1 X11.061 Y10.980 E14.55274
G1 X-11.061 Y10.980 E15.24256
G1 X-11.855 Y10.186 E15.27758
G1 X-11.855 Y-10.186 E15.91283
G1 X-11.061 Y-10.980 E15.94784
G1 X10.440 Y-10.980 E16.61829
G1 X10.500 Y-10.605 F1800.000
G1 F1200
G1 X10.906 Y-10.605 E16.63095
G1 X11.480 Y-10.031 E16.65628
G1 X11.480 Y10.031 E17.28184
G1 X10.906 Y10.605 E17.30717
G1 X-10.906 Y10.605 E17.98730
G1 X-11.480 Y10.031 E18.01263
G1 X-11.480 Y-10.031 E18.63820
G1 X-10.906 Y-10.605 E18.66352
G1 X10.440 Y-10.605 E19.32912
G1 X10.500 Y-10.230 F1800.000
G1 F1200
G1 X10.751 Y-10.230 E19.33694
G1 X11.105 Y-9.876 E19.35258
G1 X11.105 Y9.876 E19.96846
G1 X10.751 Y10.230 E19.98410
G1 X-10.751 Y10.230 E20.65455
G1 X-11.105 Y9.876 E20.67019
G1 X-11.105 Y-9.876 E21.28607
G1 X-10.751 Y-10.230 E21.30171
G1 X10.440 Y-10.230 E21.96247
G1 X10.730 Y-9.720 F1800.000
G1 F1200
G1 X10.730 Y9.720 E22.56866
G1 X10.595 Y9.855 E22.57461
G1 X-10.595 Y9.855 E23.23537
G1 X-10.730 Y9.720 E23.24132
G1 X-10.730 Y-9.720 E23.84752
G1 X-10.595 Y-9.855 E23.85347
G1 X10.595 Y-9.855 E24.51423
G1 X10.688 Y-9.763 E24.51831
G1 X10.300 Y-9.425 F1800.000
G1 F1200
G1 X10.300 Y9.425 E25.07799
G1 X-10.300 Y9.425 E25.68963
G1 X-10.300 Y-9.425 E26.24931
G1 X10.240 Y-9.425 E26.85917
G1 X10.191 Y-9.040 F1800.000
G1 X9.943 Y-9.068 F1800.000
G1 F1200
G1 X9.943 Y9.068 E27.39765
G1 X-9.943 Y9.068 E27.98809
G1 X-9.943 Y-9.068 E28.52656
G1 X9.883 Y-9.068 E29.11522
G1 X9.586 Y-8.711 F1800.000
G1 F1200
G1 X9.586 Y8.711 E29.63249
G1 X-9.586 Y8.711 E30.20172
G1 X-9.586 Y-8.711 E30.71899
G1 X9.526 Y-8.711 E31.28645
G1 X9.229 Y-8.354 F1800.000
G1 F1200
G1 X9.229 Y8.354 E31.78251
G1 X-9.229 Y8.354 E32.33054
G1 X-9.229 Y-8.354 E32.82661
G1 X9.169 Y-8.354 E33.37286
G1 E28.37286 F2400.00000
G92 E0
G1 Z0.800 F1800.000
G1 X8.733 Y8.136 F1800.000
G1 Z0.300 F1800.000
G1 E5.00000 F2400.00000
G1 F1200
G1 X9.011 Y7.858 E5.01181
G1 X9.011 Y7.347 E5.02717
G1 X8.222 Y8.136 E5.06071
G1 X7.710 Y8.136 E5.07607
G1 X9.011 Y6.835 E5.13134
G1 X9.011 Y6.324 E5.14670
G1 X7.199 Y8.136 E5.22369
G1 X6.688 Y8.136 E5.23905
G1 X9.011 Y5.813 E5.33776
G1 X9.011 Y5.302 E5.35312
G1 X6.177 Y8.136 E5.47356
G1 X5.666 Y8.136 E5.48893
G1 X9.011 Y4.791 E5.63109
G1 X9.011 Y4.280 E5.64646
G1 X5.155 Y8.136 E5.81035
G1 X4.643 Y8.136 E5.82571
G1 X9.011 Y3.768 E6.01133
G1 X9.011 Y3.257 E6.02669
G1 X4.132 Y8.136 E6.23403
G1 X3.621 Y8.136 E6.24939
G1 X9.011 Y2.746 E6.47846
G1 X9.011 Y2.235 E6.49383
G1 X3.110 Y8.136 E6.74462
G1 X2.599 Y8.136 E6.75998
G1 X9.011 Y1.724 E7.03250
G1 X9.011 Y1.213 E7.04787
G1 X2.088 Y8.136 E7.34211
G1 X1.576 Y8.136 E7.35748
G1 X9.011 Y0.701 E7.67345
G1 X9.011 Y0.190 E7.68881
G1 X1.065 Y8.136 E8.02651
G1 X0.554 Y8.136 E8.04187
G1 X9.011 Y-0.321 E8.40129
G1 X9.011 Y-0.832 E8.41666
G1 X0.043 Y8.136 E8.79781
G1 X-0.468 Y8.136 E8.81317
G1 X9.011 Y-1.343 E9.21604
G1 X9.011 Y-1.854 E9.23141
G1 X-0.979 Y8.136 E9.65601
G1 X-1.490 Y8.136 E9.67137
G1 X9.011 Y-2.365 E10.11770
G1 X9.011 Y-2.877 E10.13306
G1 X-2.002 Y8.136 E10.60111
G1 X-2.513 Y8.136 E10.61648
G1 X9.011 Y-3.388 E11.10625
G1 X9.011 Y-3.899 E11.12162
G1 X-3.024 Y8.136 E11.63312
G1 X-3.535 Y8.136 E11.64848
G1 X9.011 Y-4.410 E12.18171
G1 X9.011 Y-4.921 E12.19708
G1 X-4.046 Y8.136 E12.75203
G1 X-4.557 Y8.136 E12.76740
G1 X9.011 Y-5.432 E13.34408
G1 X9.011 Y-5.944 E13.35944
G1 X-5.069 Y8.136 E13.95785
G1 X-5.580 Y8.136 E13.97321
G1 X9.011 Y-6.455 E14.59334
G1 X9.011 Y-6.966 E14.60871
G1 X-6.091 Y8.136 E15.25057
G1 X-6.602 Y8.136 E15.26593
G1 X9.011 Y-7.477 E15.92951
G1 X9.011 Y-7.988 E15.94488
G1 X-7.113 Y8.136 E16.63019
G1 X-7.624 Y8.136 E16.64555
G1 X8.647 Y-8.136 E17.33712
G1 X8.136 Y-8.136 E17.35249
G1 X-8.136 Y8.136 E18.04406
G1 X-8.647 Y8.136 E18.05942
G1 X7.624 Y-8.136 E18.75100
G1 X7.113 Y-8.136 E18.76636
G1 X-9.011 Y7.988 E19.45167
G1 X-9.011 Y7.477 E19.46703
G1 X6.602 Y-8.136 E20.13062
G1 X6.091 Y-8.136 E20.14598
G1 X-9.011 Y6.966 E20.78784
G1 X-9.011 Y6.455 E20.80321
G1 X5.580 Y-8.136 E21.42334
G1 X5.069 Y-8.136 E21.43870
G1 X-9.011 Y5.944 E22.03711
G1 X-9.011 Y5.432 E22.05248
G1 X4.557 Y-8.136 E22.62916
G1 X4.046 Y-8.136 E22.64452
G1 X-9.011 Y4.921 E23.19948
G1 X-9.011 Y4.410 E23.21484
G1 X3.535 Y-8.136 E23.74808
G1 X3.024 Y-8.136 E23.76344
G1 X-9.011 Y3.899 E24.27494
G1 X-9.011 Y3.388 E24.29031
G1 X2.513 Y-8.136 E24.78009
G1 X2.002 Y-8.136 E24.79545
G1 X-9.011 Y2.877 E25.26351
G1 X-9.011 Y2.366 E25.27887
G1 X1.491 Y-8.136 E25.72520
G1 X0.979 Y-8.136 E25.74056
G1 X-9.011 Y1.854 E26.16516
G1 X-9.011 Y1.343 E26.18052
G1 X0.468 Y-8.136 E26.58340
G1 X-0.043 Y-8.136 E26.59876
G1 X-9.011 Y0.832 E26.97992
G1 X-9.011 Y0.321 E26.99528
G1 X-0.554 Y-8.136 E27.35470
G1 X-1.065 Y-8.136 E27.37007
G1 X-9.011 Y-0.190 E27.70777
G1 X-9.011 Y-0.701 E27.72313
G1 X-1.576 Y-8.136 E28.03910
G1 X-2.088 Y-8.136 E28.05447
G1 X-9.011 Y-1.213 E28.34871
G1 X-9.011 Y-1.724 E28.36408
G1 X-2.599 Y-8.136 E28.63660
G1 X-3.110 Y-8.136 E28.65196
G1 X-9.011 Y-2.235 E28.90276
G1 X-9.011 Y-2.746 E28.91812
G1 X-3.621 Y-8.136 E29.14719
G1 X-4.132 Y-8.136 E29.16255
G1 X-9.011 Y-3.257 E29.36990
G1 X-9.011 Y-3.768 E29.38526
G1 X-4.643 Y-8.136 E29.57088
G1 X-5.155 Y-8.136 E29.58624
G1 X-9.011 Y-4.280 E29.75014
G1 X-9.011 Y-4.791 E29.76550
G1 X-5.666 Y-8.136 E29.90767
G1 X-6.177 Y-8.136 E29.92303
G1 X-9.011 Y-5.302 E30.04347
G1 X-9.011 Y-5.813 E30.05883
G1 X-6.688 Y-8.136 E30.15755
G1 X-7.199 Y-8.136 E30.17291
G1 X-9.011 Y-6.324 E30.24990
G1 X-9.011 Y-6.835 E30.26526
G1 X-7.710 Y-8.136 E30.32053
G1 X-8.221 Y-8.136 E30.33589
G1 X-9.011 Y-7.346 E30.36943
G1 X-9.011 Y-7.858 E30.38479
G1 X-8.733 Y-8.136 E30.39660
G1 E25.39660 F2400.00000
G92 E0
G1 Z0.800 F1800.000
G1 X8.551 Y-7.676 F1800.000
G1 Z0.500 F1800.000
G1 E5.00000 F2400.00000
G1 F1800
G1 X8.551 Y7.676 E5.80203
G1 X-8.551 Y7.676 E6.69549
G1 X-8.551 Y-7.676 E7.49751
G1 X8.491 Y-7.676 E8.38784
G1 X9.179 Y-8.304 F1800.000
G1 F1800
G1 X9.179 Y8.304 E9.25552
G1 X-9.179 Y8.304 E10.21463
G1 X-9.179 Y-8.304 E11.08231
G1 X9.119 Y-8.304 E12.03829
G1 X9.807 Y-8.932 F1800.000
G1 F1800
G1 X9.807 Y8.932 E12.97162
G1 X-9.807 Y8.932 E13.99638
G1 X-9.807 Y-8.932 E14.92972
G1 X9.747 Y-8.932 E15.95135
G1 X10.300 Y-9.425 F1800.000
G1 F1800
G1 X10.300 Y9.425 E16.51103
G1 X-10.300 Y9.425 E17.12267
G1 X-10.300 Y-9.425 E17.68235
G1 X10.240 Y-9.425 E18.29221
G1 X10.191 Y-9.040 F1800.000
G1 E13.29221 F2400.00000
G92 E0
G1 Z1.000 F1800.000
G1 X8.167 Y-6.803 F1800.000
G1 Z0.500 F1800.000
G1 E5.00000 F2400.00000
G1 F1800
G1 X7.678 Y-7.292 E5.03688
G1 X6.771 Y-7.292 E5.08527
G1 X8.167 Y-5.896 E5.19059
G1 X8.167 Y-4.988 E5.23899
G1 X5.863 Y-7.292 E5.41275
G1 X4.956 Y-7.292 E5.46114
G1 X8.167 Y-4.081 E5.70334
G1 X8.167 Y-3.174 E5.75174
G1 X4.049 Y-7.292 E6.06238
G1 X3.142 Y-7.292 E6.11078
G1 X8.167 Y-2.267 E6.48986
G1 X8.167 Y-1.359 E6.53825
G1 X2.234 Y-7.292 E6.98578
G1 X1.327 Y-7.292 E7.03417
G1 X8.167 Y-0.452 E7.55014
G1 X8.167 Y0.455 E7.59853
G1 X0.420 Y-7.292 E8.18294
G1 X-0.487 Y-7.292 E8.23133
G1 X8.167 Y1.362 E8.88418
G1 X8.167 Y2.270 E8.93258
G1 X-1.395 Y-7.292 E9.65386
G1 X-2.302 Y-7.292 E9.70226
G1 X8.167 Y3.177 E10.49199
G1 X8.167 Y4.084 E10.54038
G1 X-3.209 Y-7.292 E11.39855
G1 X-4.116 Y-7.292 E11.44695
G1 X8.167 Y4.991 E12.37356
G1 X8.167 Y5.899 E12.42195
G1 X-5.024 Y-7.292 E13.41700
G1 X-5.931 Y-7.292 E13.46540
G1 X8.167 Y6.806 E14.52889
G1 X8.167 Y7.292 E14.55481
G1 X7.745 Y7.292 E14.57728
G1 X-6.838 Y-7.292 E15.67743
G1 X-7.745 Y-7.292 E15.72582
G1 X6.838 Y7.292 E16.82597
G1 X5.931 Y7.292 E16.87436
G1 X-8.167 Y-6.806 E17.93786
G1 X-8.167 Y-5.899 E17.98625
G1 X5.024 Y7.292 E18.98130
G1 X4.116 Y7.292 E19.02970
G1 X-8.167 Y-4.991 E19.95631
G1 X-8.167 Y-4.084 E20.00471
G1 X3.209 Y7.292 E20.86288
G1 X2.302 Y7.292 E20.91127
G1 X-8.167 Y-3.177 E21.70100
G1 X-8.167 Y-2.270 E21.74939
G1 X1.395 Y7.292 E22.47068
G1 X0.487 Y7.292 E22.51908
G1 X-8.167 Y-1.362 E23.17193
G1 X-8.167 Y-0.455 E23.22032
G1 X-0.420 Y7.292 E23.80473
G1 X-1.327 Y7.292 E23.85312
G1 X-8.167 Y0.452 E24.36909
G1 X-8.167 Y1.359 E24.41748
G1 X-2.234 Y7.292 E24.86501
G1 X-3.142 Y7.292 E24.91340
G1 X-8.167 Y2.267 E25.29249
G1 X-8.167 Y3.174 E25.34088
G1 X-4.049 Y7.292 E25.65152
G1 X-4.956 Y7.292 E25.69992
G1 X-8.167 Y4.081 E25.94212
G1 X-8.167 Y4.988 E25.99052
G1 X-5.863 Y7.292 E26.16428
G1 X-6.771 Y7.292 E26.21267
G1 X-8.167 Y5.896 E26.31799
G1 X-8.167 Y6.803 E26.36639
G1 X-7.678 Y7.292 E26.40325
G1 E21.40325 F2400.00000
G92 E0
G1 Z1.000 F1800.000
G1 X8.551 Y-7.676 F1800.000
G1 Z0.700 F1800.000
G1 E5.00000 F2400.00000
G1 F1800
G1 X8.551 Y7.676 E5.80203
G1 X-8.551 Y7.676 E6.69549
G1 X-8.551 Y-7.676 E7.49751
G1 X8.491 Y-7.676 E8.38784
G1 X9.179 Y-8.304 F1800.000
G1 F1800
G1 X9.179 Y8.304 E9.25552
G1 X-9.179 Y8.304 E10.21463
G1 X-9.179 Y-8.304 E11.08231
G1 X9.119 Y-8.304 E12.03829
G1 X9.807 Y-8.932 F1800.000
G1 F1800
G1 X9.807 Y8.932 E12.97162
G1 X-9.807 Y8.932 E13.99638
G1 X-9.807 Y-8.932 E14.92972
G1 X9.747 Y-8.932 E15.95135
G1 X10.300 Y-9.425 F1800.000
G1 F1800
G1 X10.300 Y9.425 E16.51103
G1 X-10.300 Y9.425 E17.12267
G1 X-10.300 Y-9.425 E17.68235
G1 X10.240 Y-9.425 E18.29221
G1 X10.191 Y-9.040 F1800.000
G1 E13.29221 F2400.00000
G92 E0
G1 Z1.200 F1800.000
G1 X7.678 Y7.292 F1800.000
G1 Z0.700 F1800.000
G1 E5.00000 F2400.00000
G1 F1800
G1 X8.167 Y6.803 E5.03688
G1 X8.167 Y5.896 E5.08527
G1 X6.771 Y7.292 E5.19059
G1 X5.863 Y7.292 E5.23899
G1 X8.167 Y4.988 E5.41275
G1 X8.167 Y4.081 E5.46114
G1 X4.956 Y7.292 E5.70334
G1 X4.049 Y7.292 E5.75174
G1 X8.167 Y3.174 E6.06238
G1 X8.167 Y2.267 E6.11078
G1 X3.142 Y7.292 E6.48986
G1 X2.234 Y7.292 E6.53825
G1 X8.167 Y1.359 E6.98578
G1 X8.167 Y0.452 E7.03417
G1 X1.327 Y7.292 E7.55014
G1 X0.420 Y7.292 E7.59853
G1 X8.167 Y-0.455 E8.18294
G1 X8.167 Y-1.362 E8.23133
G1 X-0.487 Y7.292 E8.88418
G1 X-1.395 Y7.292 E8.93257
G1 X8.167 Y-2.270 E9.65386
G1 X8.167 Y-3.177 E9.70226
G1 X-2.302 Y7.292 E10.49199
G1 X-3.209 Y7.292 E10.54038
G1 X8.167 Y-4.084 E11.39855
G1 X8.167 Y-4.991 E11.44695
G1 X-4.116 Y7.292 E12.37356
G1 X-5.024 Y7.292 E12.42195
G1 X8.167 Y-5.899 E13.41700
G1 X8.167 Y-6.806 E13.46540
G1 X-5.931 Y7.292 E14.52889
G1 X-6.838 Y7.292 E14.57728
G1 X7.745 Y-7.292 E15.67743
G1 X6.838 Y-7.292 E15.72582
G1 X-7.745 Y7.292 E16.82597
G1 X-8.167 Y7.292 E16.84845
G1 X-8.167 Y6.806 E16.87436
G1 X5.931 Y-7.292 E17.93786
G1 X5.024 Y-7.292 E17.98625
G1 X-8.167 Y5.899 E18.98130
G1 X-8.167 Y4.991 E19.02970
G1 X4.116 Y-7.292 E19.95631
G1 X3.209 Y-7.292 E20.00471
G1 X-8.167 Y4.084 E20.86288
G1 X-8.167 Y3.177 E20.91127
G1 X2.302 Y-7.292 E21.70100
G1 X1.395 Y-7.292 E21.74939
G1 X-8.167 Y2.270 E22.47068
G1 X-8.167 Y1.362 E22.51908
G1 X0.487 Y-7.292 E23.17193
G1 X-0.420 Y-7.292 E23.22032
G1 X-8.167 Y0.455 E23.80473
G1 X-8.167 Y-0.452 E23.85312
G1 X-1.327 Y-7.292 E24.36909
G1 X-2.234 Y-7.292 E24.41748
G1 X-8.167 Y-1.359 E24.86501
G1 X-8.167 Y-2.267 E24.91340
G1 X-3.142 Y-7.292 E25.29249
G1 X-4.049 Y-7.292 E25.34088
G1 X-8.167 Y-3.174 E25.65152
G1 X-8.167 Y-4.081 E25.69992
G1 X-4.956 Y-7.292 E25.94212
G1 X-5.863 Y-7.292 E25.99052
G1 X-8.167 Y-4.988 E26.16428
G1 X-8.167 Y-5.896 E26.21267
G1 X-6.771 Y-7.292 E26.31799
G1 X-7.678 Y-7.292 E26.36639
G1 X-8.167 Y-6.803 E26.40325
M106 S209.1
G1 E21.40325 F2400.00000
G92 E0
G1 Z1.200 F1800.000
G1 X8.551 Y-7.676 F1800.000
G1 Z0.900 F1800.000
G1 E5.00000 F2400.00000
G1 F1800
G1 X8.551 Y7.676 E5.80203
G1 X-8.551 Y7.676 E6.69549
G1 X-8.551 Y-7.676 E7.49751
G1 X8.491 Y-7.676 E8.38784
G1 X9.179 Y-8.304 F1800.000
G1 F1800
G1 X9.179 Y8.304 E9.25552
G1 X-9.179 Y8.304 E10.21463
G1 X-9.179 Y-8.304 E11.08231
G1 X9.119 Y-8.304 E12.03829
G1 X9.807 Y-8.932 F1800.000
G1 F1800
G1 X9.807 Y8.932 E12.97162
G1 X-9.807 Y8.932 E13.99638
G1 X-9.807 Y-8.932 E14.92972
G1 X9.747 Y-8.932 E15.95135
G1 X10.300 Y-9.425 F1800.000
G1 F1800
G1 X10.300 Y9.425 E16.51103
G1 X-10.300 Y9.425 E17.12267
G1 X-10.300 Y-9.425 E17.68235
G1 X10.240 Y-9.425 E18.29221
G1 X10.191 Y-9.040 F1800.000
G1 E13.29221 F2400.00000
G92 E0
G1 Z1.400 F1800.000
G1 X8.167 Y-6.050 F1800.000
G1 Z0.900 F1800.000
G1 E5.00000 F2400.00000
G1 F1800
G1 X6.925 Y-7.292 E5.09171
G1 X5.741 Y-7.292 E5.15361
G1 X8.167 Y-4.866 E5.33285
G1 X8.167 Y-3.681 E5.39475
G1 X4.556 Y-7.292 E5.66153
G1 X3.371 Y-7.292 E5.72343
G1 X8.167 Y-2.496 E6.07775
G1 X8.167 Y-1.311 E6.13965
G1 X2.186 Y-7.292 E6.58150
G1 X1.002 Y-7.292 E6.64340
G1 X8.167 Y-0.127 E7.17280
G1 X8.167 Y1.058 E7.23469
G1 X-0.183 Y-7.292 E7.85162
G1 X-1.368 Y-7.292 E7.91352
G1 X8.167 Y2.243 E8.61799
G1 X8.167 Y3.428 E8.67989
G1 X-2.553 Y-7.292 E9.47189
G1 X-3.737 Y-7.292 E9.53379
G1 X8.167 Y4.612 E10.41333
G1 X8.167 Y5.797 E10.47523
G1 X-4.922 Y-7.292 E11.44231
G1 X-6.107 Y-7.292 E11.50421
G1 X8.167 Y6.982 E12.55882
G1 X8.167 Y7.292 E12.57501
G1 X7.292 Y7.292 E12.62072
G1 X-7.292 Y-7.292 E13.69823
G1 X-8.167 Y-7.292 E13.74394
G1 X-8.167 Y-6.982 E13.76012
G1 X6.107 Y7.292 E14.81474
G1 X4.922 Y7.292 E14.87664
G1 X-8.167 Y-5.797 E15.84372
G1 X-8.167 Y-4.612 E15.90561
G1 X3.737 Y7.292 E16.78516
G1 X2.553 Y7.292 E16.84705
G1 X-8.167 Y-3.428 E17.63906
G1 X-8.167 Y-2.243 E17.70096
G1 X1.368 Y7.292 E18.40543
G1 X0.183 Y7.292 E18.46732
G1 X-8.167 Y-1.058 E19.08425
G1 X-8.167 Y0.127 E19.14615
G1 X-1.002 Y7.292 E19.67555
G1 X-2.186 Y7.292 E19.73744
G1 X-8.167 Y1.311 E20.17930
G1 X-8.167 Y2.496 E20.24120
G1 X-3.371 Y7.292 E20.59552
G1 X-4.556 Y7.292 E20.65742
G1 X-8.167 Y3.681 E20.92420
G1 X-8.167 Y4.866 E20.98610
G1 X-5.741 Y7.292 E21.16534
G1 X-6.925 Y7.292 E21.22724
G1 X-8.167 Y6.050 E21.31895
M106 S183.6
G1 E16.31895 F2400.00000
G92 E0
G1 Z1.400 F1800.000
G1 X8.551 Y-7.676 F1800.000
G1 Z1.100 F1800.000
G1 E5.00000 F2400.00000
G1 F1800
G1 X8.551 Y7.676 E5.80203
G1 X-8.551 Y7.676 E6.69549
G1 X-8.551 Y-7.676 E7.49751
G1 X8.491 Y-7.676 E8.38784
G1 X9.179 Y-8.304 F1800.000
G1 F1800
